icons/op-redo-24.svg

<svg width="24" height="24" viewBox="0 0 24 24" fill="none" xmlns="http://www.w3.org/2000/svg">
<path d="M17.25 10.0825C16.9375 9.30928 16.4375 8.62887 15.8438 8.01031C14.5312 6.71134 12.7812 6 10.9375 6C9.09375 6 7.34375 6.71134 6.03125 8.01031C4.71875 9.30928 4 11.0103 4 12.866C4 14.6907 4.71875 16.4227 6.03125 17.6907C6.25 17.9072 6.53125 18 6.78125 18C7.0625 18 7.34375 17.9072 7.53125 17.6907C7.96875 17.2887 7.96875 16.6082 7.53125 16.2062C6.625 15.3093 6.125 14.134 6.125 12.866C6.125 11.5979 6.625 10.3918 7.53125 9.49485C8.4375 8.59794 9.65625 8.10309 10.9375 8.10309C12.2188 8.10309 13.4062 8.59794 14.3125 9.49485C15 10.1753 15.4375 10.9794 15.625 11.9072L13.3438 14.4433H20V7.05155L17.25 10.0825Z" fill="black"/>
</svg>

<svg xmlns="http://www.w3.org/2000/svg" width="24" height="24" viewBox="0 0 24 24"><path d="M17.25 10.082c-.312-.773-.812-1.453-1.406-2.072A6.942 6.942 0 0 0 10.938 6a6.942 6.942 0 0 0-4.907 2.01A6.747 6.747 0 0 0 4 12.866c0 1.825.719 3.557 2.031 4.825.219.216.5.309.75.309.281 0 .563-.093.75-.309a1.003 1.003 0 0 0 0-1.485 4.655 4.655 0 0 1-1.406-3.34c0-1.268.5-2.474 1.406-3.371a4.826 4.826 0 0 1 3.407-1.392 4.75 4.75 0 0 1 3.374 1.392 4.605 4.605 0 0 1 1.313 2.412l-2.281 2.536H20V7.052l-2.75 3.03Z"/></svg>
